X:42
T: Der Tannhaeuser
N: Q0015
O: Mitteleuropa, Deutschland
N: eingeklammerte Note und Pause notiert.
R: Ballade, Wallfahrt, religioes
M: none
L: 1/16
K: G
G4 | G4G4A4B4 | c4c4B4A4z4
B4 | d4d4c4G4 | A4B4c8z4
A4 | B4c4d4e4 | d4c2B2A8z4
B4 | G4A3Bc6BAG8 | A8G8z4

@@@ Tune index: 671
